; generated by PrusaSlicer 2.5.2+win64 on 2023-08-30 at 03:01:59 UTC


;
;
; 

; external perimeters extrusion width = 0.45mm
; perimeters extrusion width = 0.45mm
; infill extrusion width = 0.45mm
; solid infill extrusion width = 0.45mm
; top infill extrusion width = 0.40mm
; first layer extrusion width = 0.42mm

; external perimeters extrusion width = 0.45mm
; perimeters extrusion width = 0.45mm
; infill extrusion width = 0.45mm
; solid infill extrusion width = 0.45mm
; top infill extrusion width = 0.40mm
; first layer extrusion width = 0.42mm

; external perimeters extrusion width = 0.45mm
; perimeters extrusion width = 0.45mm
; infill extrusion width = 0.45mm
; solid infill extrusion width = 0.45mm
; top infill extrusion width = 0.40mm
; first layer extrusion width = 0.42mm

; external perimeters extrusion width = 0.45mm
; perimeters extrusion width = 0.45mm
; infill extrusion width = 0.45mm
; solid infill extrusion width = 0.45mm
; top infill extrusion width = 0.40mm
; first layer extrusion width = 0.42mm

; external perimeters extrusion width = 0.45mm
; perimeters extrusion width = 0.45mm
; infill extrusion width = 0.45mm
; solid infill extrusion width = 0.45mm
; top infill extrusion width = 0.40mm
; first layer extrusion width = 0.42mm

M73 P0 R38
M73 Q0 S38
M201 X1000 Y1000 Z200 E5000 ; sets maximum accelerations, mm/sec^2
M203 X200 Y200 Z12 E120 ; sets maximum feedrates, mm / sec
M204 P1250 R1250 T1500 ; sets acceleration (P, T) and retract acceleration (R), mm/sec^2
M205 X8.00 Y8.00 Z0.40 E4.50 ; sets the jerk limits, mm/sec
M205 S0 T0 ; sets the minimum extruding and travel feed rate, mm/sec
M107
;TYPE:Custom
M862.3 P "MK3S" ; printer model check
M862.1 P0.4 ; nozzle diameter check
M115 U3.12.1 ; tell printer latest fw version
G90 ; use absolute coordinates
M83 ; extruder relative mode
M104 S210 ; set extruder temp
M140 S60 ; set bed temp
M190 S60 ; wait for bed temp
M109 S210 ; wait for extruder temp
G28 W ; home all without mesh bed level
M420 S1 ; last print bed leveling is loaded and used for printing.
G80 ; mesh bed leveling

G1 Y-3 F1000 ; go outside print area
G1 Z0.3 F720; lower gantry
G92 E0
G1 X60 E9 F1000 ; intro line
G1 X100 E12.5 F1000 ; intro line

G92 E0
M221 S95
G21 ; set units to millimeters
G90 ; use absolute coordinates
M83 ; use relative distances for extrusion
; Filament gcode
M107
;LAYER_CHANGE
;Z:0.2
;HEIGHT:0.2
;BEFORE_LAYER_CHANGE
G92 E0.0
;0.2


G1 E-.5 F2400
G1 Z.2 F720
;AFTER_LAYER_CHANGE
;0.2
G1 X122.966 Y130.892 F10800
G1 E.5 F2400
M204 P800
;TYPE:Skirt/Brim
;WIDTH:0.42
G1 F1200
G1 X123.836 Y130.389 E.03151
G1 X124.694 Y130.159 E.02785
G1 X141.197 Y128.446 E.5202
G1 X175.069 Y128.461 E1.06206
G1 X176.131 Y128.703 E.03413
G1 X176.847 Y129.083 E.02543
G1 X177.461 Y129.613 E.02543
G1 X177.793 Y130.029 E.01669
G1 X178.173 Y130.746 E.02543
G1 X178.384 Y131.529 E.02543
G1 X178.43 Y132.073 E.01713
G1 X178.43 Y167.927 E1.12418
G1 X178.266 Y168.99 E.03373
G1 X177.942 Y169.734 E.02543
G1 X177.461 Y170.387 E.02543
G1 X176.847 Y170.917 E.02543
G1 X175.867 Y171.389 E.03413
G1 X174.803 Y171.554 E.03374
G1 X140.931 Y171.539 E1.06206
G1 X124.322 Y168.769 E.52796
G1 X123.277 Y168.326 E.03557
G1 X122.679 Y167.86 E.02377
G1 X122.338 Y167.481 E.01599
G1 X121.789 Y166.488 E.03557
G1 X121.626 Y165.882 E.01968
G1 X121.57 Y165.25 E.01989
G1 X121.57 Y133.75 E.98766
G1 X121.678 Y132.875 E.02765
G1 X121.937 Y132.163 E.02376
G1 X122.338 Y131.519 E.02377
G1 X122.924 Y130.934 E.02596
M204 P1000
; printing object body_v2.stl id:1 copy 0
G1 E-.5 F2400
G1 X149.724 Y152.277 F10800
G1 E.5 F2400
M204 P800
;TYPE:Perimeter
;WIDTH:0.419999
G1 F1200
G1 X149.293 Y152.598 E.01683
G1 X148.832 Y152.822 E.01607
G1 X148.339 Y152.964 E.01607
G1 X147.83 Y153.021 E.01607
G1 X147.318 Y152.991 E.01607
G1 X146.819 Y152.875 E.01607
G1 X146.346 Y152.677 E.01607
G1 X145.914 Y152.401 E.01607
G1 X145.521 Y152.034 E.01685
G1 X145.16 Y151.547 E.01902
G1 X144.926 Y151.06 E.01693
;WIDTH:0.422592
G1 X144.788 Y150.578 E.01581
;WIDTH:0.456714
G1 X144.744 Y150.393 E.00655
;WIDTH:0.490835
G1 X144.699 Y150.208 E.00709
G1 X144.72 Y149.692 E.01925
;WIDTH:0.465691
G1 X144.837 Y149.192 E.01805
;WIDTH:0.419999
G1 X145.004 Y148.741 E.0151
G1 X145.252 Y148.296 E.01595
G1 X145.578 Y147.896 E.01618
G1 X145.991 Y147.542 E.01707
G1 X146.432 Y147.28 E.01607
G1 X146.911 Y147.097 E.01607
G1 X147.413 Y146.996 E.01607
G1 X147.938 Y146.988 E.01645
G1 X148.433 Y147.056 E.01567
G1 X148.921 Y147.214 E.01607
G1 X149.375 Y147.452 E.01607
G1 X149.782 Y147.763 E.01607
G1 X150.131 Y148.139 E.01607
G1 X150.411 Y148.568 E.01607
G1 X150.615 Y149.039 E.01607
G1 X150.736 Y149.537 E.01607
G1 X150.771 Y150.048 E.01607
G1 X150.72 Y150.558 E.01607
G1 X150.583 Y151.052 E.01607
G1 X150.364 Y151.516 E.01607
G1 X150.073 Y151.934 E.01598
G1 X149.766 Y152.235 E.01348
M204 P1000
G1 X149.475 Y151.997 F10800
M204 P800
;TYPE:External perimeter
G1 F1200
G1 X149.123 Y152.262 E.01381
G1 X148.721 Y152.461 E.01407
G1 X148.273 Y152.592 E.01464
G1 X147.846 Y152.644 E.0135
G1 X147.398 Y152.623 E.01407
G1 X146.959 Y152.526 E.01407
G1 X146.544 Y152.356 E.01407
G1 X146.163 Y152.118 E.01407
G1 X145.813 Y151.794 E.01497
G1 X145.489 Y151.363 E.0169
G1 X145.282 Y150.934 E.01493
G1 X145.161 Y150.514 E.01369
G1 X145.112 Y150 E.0162
G1 X145.161 Y149.486 E.0162
G1 X145.323 Y148.949 E.01758
G1 X145.566 Y148.505 E.01586
G1 X145.954 Y148.066 E.01837
G1 X146.189 Y147.863 E.00973
G1 X146.573 Y147.63 E.01407
G1 X146.99 Y147.465 E.01407
G1 X147.429 Y147.373 E.01407
G1 X147.894 Y147.363 E.01456
G1 X148.323 Y147.417 E.01356
G1 X148.751 Y147.551 E.01407
G1 X149.151 Y147.755 E.01407
G1 X149.51 Y148.024 E.01407
G1 X149.818 Y148.35 E.01407
G1 X150.068 Y148.723 E.01407
G1 X150.25 Y149.134 E.01407
G1 X150.36 Y149.569 E.01407
G1 X150.396 Y150.016 E.01407
G1 X150.355 Y150.463 E.01407
G1 X150.239 Y150.897 E.01407
G1 X150.052 Y151.304 E.01407
G1 X149.798 Y151.675 E.01407
G1 X149.518 Y151.955 E.01242
M204 P1000
G1 X149.554 Y152.389 F10800
G1 E-.5 F2400
G1 X145.546 Y143.56 F10800
G1 E.5 F2400
M204 P800
;TYPE:Perimeter
G1 F1200
G1 X145.273 Y143.232 E.01338
G1 X144.99 Y142.729 E.0181
G1 X144.813 Y142.217 E.01696
G1 X144.734 Y141.708 E.01614
G1 X144.743 Y141.196 E.01607
G1 X144.837 Y140.692 E.01607
G1 X145.031 Y140.193 E.0168
G1 X145.273 Y139.768 E.01532
G1 X145.6 Y139.375 E.01603
G1 X145.991 Y139.042 E.01612
G1 X146.432 Y138.78 E.01607
G1 X146.911 Y138.597 E.01607
G1 X147.413 Y138.496 E.01607
G1 X147.895 Y138.483 E.0151
G1 X148.433 Y138.556 E.01703
G1 X148.921 Y138.714 E.01608
G1 X149.374 Y138.951 E.01602
G1 X149.782 Y139.263 E.01612
G1 X150.131 Y139.639 E.01607
G1 X150.411 Y140.068 E.01607
G1 X150.615 Y140.539 E.01607
G1 X150.736 Y141.03 E.01587
G1 X150.771 Y141.548 E.01627
G1 X150.72 Y142.058 E.01607
G1 X150.583 Y142.552 E.01607
G1 X150.364 Y143.016 E.01607
G1 X150.071 Y143.435 E.01606
G1 X149.71 Y143.8 E.01609
G1 X149.293 Y144.098 E.01607
G1 X148.832 Y144.322 E.01607
G1 X148.339 Y144.464 E.01607
G1 X147.83 Y144.521 E.01607
G1 X147.318 Y144.491 E.01607
G1 X146.819 Y144.375 E.01607
G1 X146.432 Y144.22 E.01307
G1 X145.991 Y143.958 E.01607
G1 X145.585 Y143.606 E.01687
M204 P1000
G1 X145.807 Y143.293 F10800
M204 P800
;TYPE:External perimeter
G1 F1200
G1 X145.548 Y142.969 E.013
G1 X145.345 Y142.599 E.01322
G1 X145.185 Y142.151 E.01492
G1 X145.112 Y141.708 E.01408
G1 X145.114 Y141.26 E.01407
G1 X145.193 Y140.818 E.01407
G1 X145.362 Y140.373 E.01491
G1 X145.566 Y140.005 E.0132
G1 X145.85 Y139.657 E.01408
G1 X146.257 Y139.321 E.01656
G1 X146.722 Y139.07 E.01654
G1 X147.242 Y138.911 E.01706
G1 X147.82 Y138.857 E.01822
G1 X148.323 Y138.917 E.01586
G1 X148.751 Y139.051 E.01408
G1 X149.151 Y139.255 E.01407
G1 X149.651 Y139.671 E.0204
G1 X149.91 Y139.985 E.01277
G1 X150.131 Y140.365 E.01377
G1 X150.288 Y140.78 E.01393
G1 X150.373 Y141.221 E.01407
G1 X150.382 Y141.674 E.01421
G1 X150.312 Y142.127 E.01438
G1 X150.162 Y142.569 E.01462
G1 X150.052 Y142.804 E.00816
G1 X149.798 Y143.175 E.01407
G1 X149.486 Y143.497 E.01407
G1 X149.123 Y143.762 E.01407
G1 X148.721 Y143.961 E.01407
G1 X148.273 Y144.092 E.01464
G1 X147.82 Y144.143 E.01429
G1 X147.398 Y144.123 E.01327
G1 X146.959 Y144.026 E.01407
G1 X146.573 Y143.87 E.01307
G1 X146.163 Y143.618 E.01507
G1 X145.847 Y143.337 E.01326
M204 P1000
G1 X145.418 Y143.385 F10800
G1 E-.5 F2400
G1 X144.651 Y134.99 F10800
G1 E.5 F2400
M204 P800
;TYPE:Perimeter
G1 F1200
G1 X144.657 Y135.059 E.00215
G1 X144.583 Y135.499 E.01399
G1 X144.397 Y135.92 E.01443
G1 X144.113 Y136.281 E.01443
G1 X143.747 Y136.561 E.01443
G1 X143.376 Y136.72 E.01266
G1 X142.869 Y136.809 E.01615
G1 X142.411 Y136.763 E.01444
G1 X142.107 Y136.664 E.01001
G1 X141.709 Y136.433 E.01443
G1 X141.382 Y136.11 E.01443
G1 X141.145 Y135.715 E.01443
G1 X141.087 Y135.471 E.00787
;WIDTH:0.393749
G1 X141.03 Y135.227 E.00732
;WIDTH:0.373336
G1 X141.036 Y134.68 E.01503
;WIDTH:0.419999
G1 X141.127 Y134.286 E.01266
G1 X141.381 Y133.839 E.01615
G1 X141.709 Y133.515 E.01444
G1 X142.107 Y133.284 E.01443
G1 X142.55 Y133.159 E.01443
G1 X142.954 Y133.147 E.01266
G1 X143.458 Y133.251 E.01615
G1 X143.867 Y133.463 E.01444
G1 X144.21 Y133.77 E.01443
G1 X144.466 Y134.152 E.01443
G1 X144.618 Y134.586 E.01443
G1 X144.646 Y134.931 E.01083
M204 P1000
G1 X144.277 Y135.05 F10800
M204 P800
;TYPE:External perimeter
G1 F1200
G1 X144.233 Y135.36 E.00982
G1 X144.092 Y135.698 E.01148
G1 X143.81 Y136.042 E.01394
G1 X143.587 Y136.22 E.00896
G1 X143.295 Y136.352 E.01004
G1 X142.892 Y136.433 E.01287
G1 X142.527 Y136.404 E.01149
G1 X142.224 Y136.305 E.01001
G1 X141.875 Y136.084 E.01295
G1 X141.629 Y135.813 E.01148
G1 X141.458 Y135.49 E.01148
G1 X141.372 Y135.134 E.01148
G1 X141.378 Y134.768 E.01148
G1 X141.462 Y134.459 E.01004
G1 X141.656 Y134.097 E.01287
G1 X141.911 Y133.834 E.01149
G1 X142.224 Y133.643 E.01148
G1 X142.574 Y133.535 E.01148
G1 X142.894 Y133.52 E.01004
G1 X143.298 Y133.592 E.01287
G1 X143.626 Y133.754 E.01149
G1 X143.905 Y133.992 E.01148
G1 X144.115 Y134.291 E.01148
G1 X144.244 Y134.634 E.01148
G1 X144.28 Y134.991 E.01125
M204 P1000
G1 X144.544 Y135.213 F10800
G1 E-.5 F2400
G1 X159.307 Y135.181 F10800
G1 E.5 F2400
M204 P800
;TYPE:Perimeter
G1 F1200
G1 X159.279 Y135.245 E.00218
G1 X159.002 Y135.596 E.01404
G1 X158.646 Y135.868 E.01403
;WIDTH:0.420163
G1 X158.234 Y136.042 E.01404
G1 X157.791 Y136.107 E.01403
;WIDTH:0.432611
G1 X157.339 Y136.067 E.0147
G1 X156.887 Y135.883 E.01582
;WIDTH:0.419999
G1 X156.509 Y135.601 E.01478
G1 X156.235 Y135.262 E.01366
G1 X156.064 Y134.914 E.01216
G1 X155.97 Y134.476 E.01404
G1 X155.988 Y134.029 E.01404
G1 X156.117 Y133.6 E.01404
M73 Q1 S38
G1 X156.348 Y133.217 E.01404
G1 X156.667 Y132.903 E.01404
G1 X157.054 Y132.678 E.01404
G1 X157.346 Y132.584 E.00961
G1 X157.826 Y132.537 E.01515
G1 X158.368 Y132.648 E.01735
G1 X158.766 Y132.854 E.01404
G1 X159.099 Y133.153 E.01404
G1 X159.347 Y133.525 E.01404
G1 X159.496 Y133.948 E.01404
G1 X159.534 Y134.394 E.01403
G1 X159.46 Y134.835 E.01404
M73 P1 R38
G1 X159.332 Y135.126 E.00997
M204 P1000
G1 X158.981 Y135.005 F10800
M204 P800
;TYPE:External perimeter
G1 F1200
G1 X158.761 Y135.306 E.01167
G1 X158.485 Y135.526 E.01109
G1 X158.163 Y135.672 E.01109
G1 X157.815 Y135.732 E.01109
G1 X157.458 Y135.702 E.01123
G1 X157.089 Y135.564 E.01233
G1 X156.784 Y135.343 E.01182
G1 X156.566 Y135.08 E.0107
G1 X156.43 Y134.82 E.00921
G1 X156.347 Y134.476 E.01109
G1 X156.353 Y134.123 E.01109
G1 X156.447 Y133.782 E.01109
G1 X156.623 Y133.475 E.01109
G1 X156.869 Y133.221 E.01109
G1 X157.17 Y133.037 E.01109
G1 X157.462 Y132.942 E.00961
G1 X157.862 Y132.917 E.01255
G1 X158.208 Y132.989 E.01109
G1 X158.525 Y133.145 E.01109
G1 X158.794 Y133.375 E.01109
G1 X158.997 Y133.664 E.01109
G1 X159.121 Y133.995 E.01109
G1 X159.16 Y134.347 E.01109
G1 X159.11 Y134.697 E.01109
G1 X159.004 Y134.95 E.0086
M204 P1000
G1 X159.172 Y135.325 F10800
G1 X158.379 Y136.548
M204 P800
;TYPE:Perimeter
;WIDTH:0.421528
G1 F1200
G1 X158.433 Y136.556 E.00172
;WIDTH:0.419999
G1 X158.921 Y136.714 E.01608
G1 X159.375 Y136.952 E.01607
G1 X159.778 Y137.259 E.01589
G1 X160.124 Y137.63 E.0159
G1 X160.411 Y138.068 E.01643
G1 X160.615 Y138.539 E.01607
G1 X160.677 Y138.778 E.00775
G1 X160.763 Y139.348 E.01808
G1 X160.736 Y139.963 E.01931
G1 X160.615 Y140.461 E.01607
G1 X160.411 Y140.932 E.01607
G1 X160.131 Y141.361 E.01607
G1 X159.771 Y141.746 E.01652
G1 X159.339 Y142.072 E.01698
G1 X158.89 Y142.3 E.01578
G1 X158.365 Y142.46 E.01721
G1 X157.854 Y142.522 E.01615
G1 X157.318 Y142.491 E.01682
G1 X156.819 Y142.375 E.01607
G1 X156.346 Y142.177 E.01607
G1 X155.914 Y141.901 E.01607
G1 X155.535 Y141.556 E.01607
G1 X155.219 Y141.152 E.01607
G1 X154.976 Y140.701 E.01607
G1 X154.813 Y140.215 E.01607
G1 X154.734 Y139.708 E.01607
G1 X154.743 Y139.196 E.01607
G1 X154.837 Y138.692 E.01607
G1 X155.004 Y138.241 E.0151
G1 X155.267 Y137.775 E.01674
G1 X155.601 Y137.374 E.01637
G1 X155.991 Y137.042 E.01607
G1 X156.432 Y136.78 E.01607
G1 X156.911 Y136.597 E.01607
;WIDTH:0.439068
G1 X157.413 Y136.487 E.01694
G1 X157.946 Y136.489 E.01757
;WIDTH:0.421528
G1 X158.319 Y136.54 E.01186
M204 P1000
G1 X158.156 Y136.896 F10800
M204 P800
;TYPE:External perimeter
;WIDTH:0.419999
G1 F1200
G1 X158.323 Y136.917 E.00527
G1 X158.751 Y137.051 E.01408
G1 X159.151 Y137.255 E.01407
G1 X159.51 Y137.524 E.01407
G1 X159.818 Y137.85 E.01407
G1 X160.068 Y138.223 E.01407
G1 X160.25 Y138.634 E.01407
G1 X160.312 Y138.873 E.00775
G1 X160.387 Y139.38 E.01608
G1 X160.36 Y139.931 E.01731
G1 X160.239 Y140.397 E.01507
G1 X160.052 Y140.804 E.01407
G1 X159.798 Y141.175 E.01407
G1 X159.505 Y141.477 E.01322
G1 X159.123 Y141.762 E.01492
G1 X158.721 Y141.961 E.01408
G1 X158.291 Y142.09 E.01407
G1 X157.846 Y142.144 E.01407
G1 X157.398 Y142.123 E.01407
G1 X156.959 Y142.026 E.01407
G1 X156.544 Y141.856 E.01407
G1 X156.022 Y141.493 E.01993
G1 X155.721 Y141.187 E.01344
G1 X155.471 Y140.83 E.01368
G1 X155.281 Y140.431 E.01385
G1 X155.159 Y140.002 E.014
G1 X155.112 Y139.553 E.01414
G1 X155.142 Y139.099 E.01429
G1 X155.252 Y138.65 E.01449
G1 X155.465 Y138.184 E.01607
G1 X155.801 Y137.714 E.01809
G1 X156.189 Y137.363 E.01642
G1 X156.717 Y137.072 E.01892
G1 X157.103 Y136.941 E.01276
G1 X157.497 Y136.87 E.01255
G1 X157.902 Y136.864 E.01271
G1 X158.096 Y136.888 E.00614
M204 P1000
G1 X158.253 Y136.759 F10800
G1 E-.5 F2400
G1 X164.735 Y141.712 F10800
G1 E.5 F2400
M204 P800
;TYPE:Perimeter
G1 F1200
G1 X164.737 Y141.237 E.01491
G1 X164.813 Y140.785 E.01437
G1 X164.995 Y140.259 E.01744
G1 X165.254 Y139.792 E.01674
G1 X165.58 Y139.394 E.01614
G1 X165.969 Y139.056 E.01615
G1 X166.432 Y138.78 E.0169
G1 X166.911 Y138.597 E.01607
G1 X167.413 Y138.496 E.01607
G1 X167.895 Y138.483 E.0151
G1 X168.397 Y138.546 E.01589
G1 X168.882 Y138.696 E.0159
G1 X169.36 Y138.942 E.01686
G1 X169.782 Y139.263 E.01663
G1 X170.131 Y139.639 E.01607
G1 X170.411 Y140.068 E.01607
G1 X170.615 Y140.539 E.01607
G1 X170.736 Y141.037 E.01607
G1 X170.771 Y141.548 E.01607
G1 X170.72 Y142.058 E.01607
G1 X170.583 Y142.552 E.01607
G1 X170.364 Y143.016 E.01607
G1 X170.079 Y143.421 E.01553
G1 X169.71 Y143.8 E.01659
G1 X169.293 Y144.098 E.01608
G1 X168.832 Y144.322 E.01607
G1 X168.339 Y144.464 E.01607
G1 X167.83 Y144.521 E.01607
G1 X167.318 Y144.491 E.01607
G1 X166.819 Y144.375 E.01607
G1 X166.346 Y144.177 E.01607
G1 X165.914 Y143.901 E.01607
G1 X165.535 Y143.556 E.01607
G1 X165.219 Y143.152 E.01607
G1 X164.99 Y142.729 E.0151
G1 X164.819 Y142.244 E.01611
G1 X164.741 Y141.772 E.015
M204 P1000
G1 X165.112 Y141.693 F10800
M204 P800
;TYPE:External perimeter
G1 F1200
G1 X165.114 Y141.26 E.01359
G1 X165.185 Y140.849 E.01307
G1 X165.335 Y140.421 E.01421
G1 X165.566 Y140.005 E.01492
G1 X165.85 Y139.657 E.01408
G1 X166.189 Y139.363 E.01407
G1 X166.573 Y139.13 E.01407
G1 X166.99 Y138.965 E.01407
G1 X167.429 Y138.873 E.01407
G1 X167.85 Y138.858 E.01321
G1 X168.323 Y138.917 E.01492
G1 X168.751 Y139.051 E.01408
G1 X169.151 Y139.255 E.01407
G1 X169.52 Y139.535 E.01454
G1 X169.873 Y139.93 E.0166
G1 X170.149 Y140.404 E.0172
G1 X170.25 Y140.634 E.00786
G1 X170.36 Y141.069 E.01407
G1 X170.396 Y141.516 E.01407
G1 X170.355 Y141.963 E.01407
G1 X170.239 Y142.397 E.01407
