; generated by PrusaSlicer 2.5.2+win64 on 2023-08-01 at 01:13:50 UTC


;
;
; 

; external perimeters extrusion width = 0.60mm
; perimeters extrusion width = 0.50mm
; infill extrusion width = 0.50mm
; solid infill extrusion width = 0.50mm
; top infill extrusion width = 0.45mm
; first layer extrusion width = 0.42mm

; external perimeters extrusion width = 0.60mm
; perimeters extrusion width = 0.50mm
; infill extrusion width = 0.50mm
; solid infill extrusion width = 0.50mm
; top infill extrusion width = 0.45mm
; first layer extrusion width = 0.42mm

; external perimeters extrusion width = 0.60mm
; perimeters extrusion width = 0.50mm
; infill extrusion width = 0.50mm
; solid infill extrusion width = 0.50mm
; top infill extrusion width = 0.45mm
; first layer extrusion width = 0.42mm

; external perimeters extrusion width = 0.60mm
; perimeters extrusion width = 0.50mm
; infill extrusion width = 0.50mm
; solid infill extrusion width = 0.50mm
; top infill extrusion width = 0.45mm
; first layer extrusion width = 0.42mm

; external perimeters extrusion width = 0.60mm
; perimeters extrusion width = 0.50mm
; infill extrusion width = 0.50mm
; solid infill extrusion width = 0.50mm
; top infill extrusion width = 0.45mm
; first layer extrusion width = 0.42mm

; external perimeters extrusion width = 0.60mm
; perimeters extrusion width = 0.50mm
; infill extrusion width = 0.50mm
; solid infill extrusion width = 0.50mm
; top infill extrusion width = 0.45mm
; first layer extrusion width = 0.42mm

; external perimeters extrusion width = 0.60mm
; perimeters extrusion width = 0.50mm
; infill extrusion width = 0.50mm
; solid infill extrusion width = 0.50mm
; top infill extrusion width = 0.45mm
; first layer extrusion width = 0.42mm

; external perimeters extrusion width = 0.60mm
; perimeters extrusion width = 0.50mm
; infill extrusion width = 0.50mm
; solid infill extrusion width = 0.50mm
; top infill extrusion width = 0.45mm
; first layer extrusion width = 0.42mm

; external perimeters extrusion width = 0.60mm
; perimeters extrusion width = 0.50mm
; infill extrusion width = 0.50mm
; solid infill extrusion width = 0.50mm
; top infill extrusion width = 0.45mm
; first layer extrusion width = 0.42mm

; external perimeters extrusion width = 0.60mm
; perimeters extrusion width = 0.50mm
; infill extrusion width = 0.50mm
; solid infill extrusion width = 0.50mm
; top infill extrusion width = 0.45mm
; first layer extrusion width = 0.42mm

; external perimeters extrusion width = 0.60mm
; perimeters extrusion width = 0.50mm
; infill extrusion width = 0.50mm
; solid infill extrusion width = 0.50mm
; top infill extrusion width = 0.45mm
; first layer extrusion width = 0.42mm

; external perimeters extrusion width = 0.60mm
; perimeters extrusion width = 0.50mm
; infill extrusion width = 0.50mm
; solid infill extrusion width = 0.50mm
; top infill extrusion width = 0.45mm
; first layer extrusion width = 0.42mm

; external perimeters extrusion width = 0.60mm
; perimeters extrusion width = 0.50mm
; infill extrusion width = 0.50mm
; solid infill extrusion width = 0.50mm
; top infill extrusion width = 0.45mm
; first layer extrusion width = 0.42mm

; external perimeters extrusion width = 0.60mm
; perimeters extrusion width = 0.50mm
; infill extrusion width = 0.50mm
; solid infill extrusion width = 0.50mm
; top infill extrusion width = 0.45mm
; first layer extrusion width = 0.42mm

; external perimeters extrusion width = 0.60mm
; perimeters extrusion width = 0.50mm
; infill extrusion width = 0.50mm
; solid infill extrusion width = 0.50mm
; top infill extrusion width = 0.45mm
; first layer extrusion width = 0.42mm

; external perimeters extrusion width = 0.60mm
; perimeters extrusion width = 0.50mm
; infill extrusion width = 0.50mm
; solid infill extrusion width = 0.50mm
; top infill extrusion width = 0.45mm
; first layer extrusion width = 0.42mm

; external perimeters extrusion width = 0.60mm
; perimeters extrusion width = 0.50mm
; infill extrusion width = 0.50mm
; solid infill extrusion width = 0.50mm
; top infill extrusion width = 0.45mm
; first layer extrusion width = 0.42mm

; external perimeters extrusion width = 0.60mm
; perimeters extrusion width = 0.50mm
; infill extrusion width = 0.50mm
; solid infill extrusion width = 0.50mm
; top infill extrusion width = 0.45mm
; first layer extrusion width = 0.42mm

; external perimeters extrusion width = 0.60mm
; perimeters extrusion width = 0.50mm
; infill extrusion width = 0.50mm
; solid infill extrusion width = 0.50mm
; top infill extrusion width = 0.45mm
; first layer extrusion width = 0.42mm

; external perimeters extrusion width = 0.60mm
; perimeters extrusion width = 0.50mm
; infill extrusion width = 0.50mm
; solid infill extrusion width = 0.50mm
; top infill extrusion width = 0.45mm
; first layer extrusion width = 0.42mm

M73 P0 R91
M73 Q0 S92
M201 X1000 Y1000 Z200 E5000 ; sets maximum accelerations, mm/sec^2
M203 X200 Y200 Z12 E120 ; sets maximum feedrates, mm / sec
M204 P1250 R1250 T1500 ; sets acceleration (P, T) and retract acceleration (R), mm/sec^2
M205 X8.00 Y8.00 Z0.40 E4.50 ; sets the jerk limits, mm/sec
M205 S0 T0 ; sets the minimum extruding and travel feed rate, mm/sec
M107
;TYPE:Custom
M862.3 P "MK3S" ; printer model check
M862.1 P0.4 ; nozzle diameter check
M115 U3.12.1 ; tell printer latest fw version
G90 ; use absolute coordinates
M83 ; extruder relative mode
M104 S210 ; set extruder temp
M140 S60 ; set bed temp
M190 S60 ; wait for bed temp
M109 S210 ; wait for extruder temp
G28 W ; home all without mesh bed level
M420 S1 ; last print bed leveling is loaded and used for printing.
G80 ; mesh bed leveling

G1 Y-3 F1000 ; go outside print area
G1 Z0.3 F720; lower gantry
G92 E0
G1 X60 E9 F1000 ; intro line
G1 X100 E12.5 F1000 ; intro line

G92 E0
M221 S95
G21 ; set units to millimeters
G90 ; use absolute coordinates
M83 ; use relative distances for extrusion
; Filament gcode
M107
;LAYER_CHANGE
;Z:0.2
;HEIGHT:0.2
;BEFORE_LAYER_CHANGE
G92 E0.0
;0.2


M73 Q0 S91
G1 E-.5 F2400
G1 Z.2 F720
;AFTER_LAYER_CHANGE
;0.2
G1 X109.534 Y103.108 F10800
G1 E.5 F2400
M204 P800
;TYPE:Skirt/Brim
;WIDTH:0.42
G1 F1200
G1 X110.114 Y102.62 E.02377
G1 X110.556 Y102.365 E.016
G1 X111.142 Y102.14 E.01968
G1 X111.888 Y102.008 E.02376
G1 X128.035 Y101.271 E.50681
G1 X153.874 Y101.272 E.81017
G1 X204.6 Y111.346 E1.62153
G1 X205.184 Y111.526 E.01916
G1 X205.901 Y111.906 E.02543
G1 X206.515 Y112.436 E.02543
G1 X206.996 Y113.089 E.02543
G1 X207.319 Y113.833 E.02543
G1 X207.484 Y114.896 E.03374
G1 X207.484 Y195.104 E2.51487
G1 X207.319 Y196.167 E.03374
G1 X206.996 Y196.911 E.02543
G1 X206.317 Y197.762 E.03413
G1 X205.664 Y198.243 E.02543
G1 X204.92 Y198.566 E.02543
G1 X203.857 Y198.731 E.03374
G1 X128.143 Y198.731 E2.37394
G1 X127.08 Y198.566 E.03374
G1 X126.54 Y198.357 E.01816
G1 X110.574 Y190.394 E.55941
G1 X109.811 Y189.901 E.02848
G1 X109.276 Y189.345 E.02421
G1 X93.276 Y169.345 E.80306
G1 X92.943 Y168.829 E.01924
G1 X92.625 Y168 E.02784
G1 X92.516 Y167.125 E.02765
G1 X92.516 Y125.625 E1.3012
G1 X92.625 Y124.75 E.02765
G1 X92.883 Y124.038 E.02377
G1 X93.276 Y123.406 E.02333
G1 X109.496 Y103.155 E.81351
M204 P1000
; printing object arm.stl id:17 copy 0
G1 E-.5 F2400
G1 X101.52 Y125.142 F10800
G1 E.5 F2400
M204 P800
;TYPE:Perimeter
;WIDTH:0.419999
G1 F1200
G1 X101.314 Y125.374 E.00973
G1 X101.102 Y125.792 E.01471
G1 X101.005 Y126.325 E.01699
G1 X101.056 Y126.786 E.01454
G1 X101.278 Y127.333 E.01849
G1 X101.52 Y127.609 E.01151
G1 X101.145 Y127.592 E.01177
G1 X96.175 Y127.582 E.15583
G1 X95.914 Y127.52 E.0084
G1 X95.743 Y127.33 E.00803
G1 X95.68 Y127.074 E.00826
G1 X95.68 Y125.752 E.04147
G1 X95.736 Y125.427 E.01032
G1 X95.891 Y125.249 E.0074
G1 X96.195 Y125.162 E.00991
G1 X100.974 Y125.158 E.14987
G1 X101.46 Y125.144 E.01523
M204 P1000
G1 E-.5 F2400
G1 X103.736 Y125.211 F10800
G1 E.5 F2400
M204 P800
;TYPE:External perimeter
;WIDTH:0.469726
G1 F1200
G1 X103.97 Y125.394 E.01054
;WIDTH:0.457838
G1 X104.191 Y125.824 E.01668
;WIDTH:0.430633
G1 X104.248 Y126.265 E.01431
;WIDTH:0.430443
G1 X104.193 Y126.914 E.021
;WIDTH:0.465279
G1 X103.969 Y127.364 E.01765
G1 X103.767 Y127.531 E.00919
;WIDTH:0.461187
G1 X103.318 Y127.698 E.01666
;WIDTH:0.424559
G1 X102.673 Y127.726 E.0205
;WIDTH:0.43368
G1 X102.178 Y127.627 E.01641
G1 X101.881 Y127.447 E.01128
;WIDTH:0.419999
G1 X101.559 Y127.066 E.01566
G1 X101.399 Y126.604 E.01533
G1 X101.385 Y126.27 E.01048
G1 X101.448 Y125.941 E.01048
G1 X101.595 Y125.624 E.01096
G1 X101.945 Y125.257 E.01591
;WIDTH:0.427171
G1 X102.383 Y125.066 E.01526
G1 X102.886 Y125.017 E.01616
;WIDTH:0.4252
G1 X103.469 Y125.088 E.01865
;WIDTH:0.469726
G1 X103.682 Y125.186 E.00831
M204 P1000
G1 E-.5 F2400
G1 X95.725 Y127.847 F10800
G1 E.5 F2400
M204 P800
;WIDTH:0.419999
G1 F1200
G1 X95.466 Y127.617 E.01084
G1 X95.347 Y127.384 E.00821
G1 X95.303 Y127.104 E.0089
G1 X95.303 Y125.752 E.04239
G1 X95.381 Y125.281 E.01496
G1 X95.585 Y125.005 E.01075
G1 X95.884 Y124.829 E.01089
G1 X96.165 Y124.785 E.0089
G1 X101.193 Y124.779 E.15765
G1 X101.804 Y124.742 E.01918
;WIDTH:0.427946
G1 X102.645 Y124.65 E.02709
;WIDTH:0.428592
G1 X103.142 Y124.651 E.01595
;WIDTH:0.459894
G1 X103.772 Y124.767 E.02222
;WIDTH:0.464349
G1 X104.14 Y124.972 E.01475
;WIDTH:0.467321
G1 X104.398 Y125.28 E.01419
G1 X104.53 Y125.59 E.01188
;WIDTH:0.439876
G1 X104.62 Y126.148 E.01866
;WIDTH:0.433703
G1 X104.614 Y126.624 E.01546
;WIDTH:0.438966
G1 X104.546 Y127.125 E.01664
;WIDTH:0.465198
G1 X104.335 Y127.576 E.01749
G1 X104.066 Y127.833 E.01306
;WIDTH:0.45998
G1 X103.609 Y128.033 E.0173
;WIDTH:0.445225
G1 X103.349 Y128.078 E.00884
;WIDTH:0.424559
G1 X102.666 Y128.105 E.02169
;WIDTH:0.439328
G1 X101.653 Y127.992 E.03358
;WIDTH:0.419999
G1 X101.144 Y127.97 E.01598
G1 X96.061 Y127.959 E.15937
G1 X95.782 Y127.866 E.00924
M204 P1000
G1 X95.714 Y127.501 F10800
G1 E-.5 F2400
G1 X100.896 Y125.895 F10800
G1 E.5 F2400
M204 P800
;TYPE:Solid infill
;WIDTH:0.436828
G1 F1200
G1 X100.499 Y125.498 E.01838
G1 X99.943 Y125.498 E.01823
G1 X100.678 Y126.234 E.03407
G1 X100.666 Y126.327 E.00308
G1 X100.685 Y126.656 E.01081
G1 X100.721 Y126.834 E.00595
G1 X99.386 Y125.499 E.06185
G1 X98.829 Y125.499 E.01823
G1 X100.582 Y127.252 E.08118
G1 X100.024 Y127.251 E.01828
G1 X98.273 Y125.5 E.08111
G1 X97.716 Y125.5 E.01823
G1 X99.466 Y127.25 E.08103
G1 X98.908 Y127.249 E.01828
G1 X97.16 Y125.501 E.08096
G1 X96.603 Y125.501 E.01823
G1 X98.349 Y127.247 E.08088
G1 X97.791 Y127.246 E.01828
G1 X96.079 Y125.534 E.07931
G1 X96.054 Y125.562 E.00122
G1 X96.02 Y125.726 E.00548
G1 X96.02 Y126.032 E.01004
G1 X97.233 Y127.245 E.05619
G1 X96.675 Y127.244 E.01828
G1 X96.02 Y126.589 E.03034
G1 X96.02 Y127.048 E.01503
G1 X96.037 Y127.16 E.00373
G1 X96.287 Y127.413 E.01162
M204 P1000
; stop printing object arm.stl id:17 copy 0
; printing object arm.stl id:11 copy 0
G1 E-.5 F2400
G1 X101.52 Y135.142 F10800
G1 E.5 F2400
M204 P800
;TYPE:Perimeter
;WIDTH:0.419999
G1 F1200
G1 X101.314 Y135.374 E.00973
G1 X101.102 Y135.792 E.01471
G1 X101.005 Y136.325 E.01699
G1 X101.056 Y136.786 E.01454
G1 X101.278 Y137.333 E.01849
G1 X101.52 Y137.609 E.01151
G1 X101.145 Y137.592 E.01177
G1 X96.175 Y137.582 E.15583
G1 X95.914 Y137.52 E.0084
G1 X95.743 Y137.33 E.00803
G1 X95.68 Y137.074 E.00826
G1 X95.68 Y135.752 E.04147
G1 X95.736 Y135.427 E.01032
G1 X95.891 Y135.249 E.0074
G1 X96.195 Y135.162 E.00991
G1 X100.974 Y135.158 E.14987
G1 X101.46 Y135.144 E.01523
M204 P1000
G1 E-.5 F2400
G1 X103.736 Y135.211 F10800
G1 E.5 F2400
M204 P800
;TYPE:External perimeter
;WIDTH:0.469726
G1 F1200
G1 X103.97 Y135.394 E.01054
;WIDTH:0.457838
G1 X104.191 Y135.824 E.01668
;WIDTH:0.430633
G1 X104.248 Y136.247 E.01375
;WIDTH:0.430443
G1 X104.193 Y136.914 E.02157
;WIDTH:0.465279
G1 X103.969 Y137.364 E.01765
G1 X103.767 Y137.531 E.00919
;WIDTH:0.461187
G1 X103.318 Y137.698 E.01666
;WIDTH:0.424559
G1 X102.673 Y137.726 E.0205
;WIDTH:0.43368
G1 X102.178 Y137.627 E.01641
G1 X101.881 Y137.447 E.01128
;WIDTH:0.419999
G1 X101.559 Y137.066 E.01566
G1 X101.399 Y136.604 E.01533
G1 X101.385 Y136.27 E.01048
G1 X101.448 Y135.941 E.01048
G1 X101.595 Y135.624 E.01096
G1 X101.945 Y135.257 E.01591
;WIDTH:0.427171
G1 X102.383 Y135.066 E.01526
G1 X102.886 Y135.017 E.01616
;WIDTH:0.4252
G1 X103.469 Y135.088 E.01865
;WIDTH:0.469726
G1 X103.682 Y135.186 E.00831
M204 P1000
G1 E-.5 F2400
G1 X95.725 Y137.847 F10800
G1 E.5 F2400
M204 P800
;WIDTH:0.419999
G1 F1200
G1 X95.466 Y137.617 E.01084
G1 X95.347 Y137.384 E.00821
G1 X95.303 Y137.104 E.0089
G1 X95.303 Y135.752 E.04239
G1 X95.381 Y135.281 E.01496
G1 X95.585 Y135.005 E.01075
G1 X95.884 Y134.829 E.01089
G1 X96.165 Y134.785 E.0089
G1 X101.193 Y134.779 E.15765
G1 X101.804 Y134.742 E.01918
;WIDTH:0.427946
G1 X102.645 Y134.65 E.02709
;WIDTH:0.428592
G1 X103.142 Y134.651 E.01595
;WIDTH:0.459894
G1 X103.772 Y134.767 E.02222
;WIDTH:0.464349
G1 X104.14 Y134.972 E.01475
;WIDTH:0.467321
G1 X104.398 Y135.28 E.01419
G1 X104.53 Y135.59 E.01188
;WIDTH:0.439876
G1 X104.62 Y136.148 E.01866
;WIDTH:0.433703
G1 X104.614 Y136.624 E.01546
;WIDTH:0.438966
G1 X104.546 Y137.125 E.01664
;WIDTH:0.465198
G1 X104.335 Y137.576 E.01749
G1 X104.066 Y137.833 E.01306
;WIDTH:0.45998
G1 X103.609 Y138.033 E.0173
;WIDTH:0.445225
G1 X103.349 Y138.078 E.00884
;WIDTH:0.424559
G1 X102.666 Y138.105 E.02169
;WIDTH:0.439328
G1 X101.653 Y137.992 E.03358
;WIDTH:0.419999
G1 X101.144 Y137.97 E.01598
G1 X96.061 Y137.959 E.15937
G1 X95.782 Y137.866 E.00924
M204 P1000
G1 X95.714 Y137.501 F10800
G1 E-.5 F2400
G1 X100.896 Y135.895 F10800
G1 E.5 F2400
M204 P800
;TYPE:Solid infill
;WIDTH:0.436828
G1 F1200
G1 X100.499 Y135.498 E.01838
G1 X99.943 Y135.498 E.01823
G1 X100.678 Y136.234 E.03407
G1 X100.666 Y136.327 E.00308
G1 X100.685 Y136.656 E.01081
G1 X100.721 Y136.834 E.00595
G1 X99.386 Y135.499 E.06185
G1 X98.829 Y135.499 E.01823
G1 X100.582 Y137.252 E.08118
G1 X100.024 Y137.251 E.01828
G1 X98.273 Y135.5 E.08111
G1 X97.716 Y135.5 E.01823
G1 X99.466 Y137.25 E.08103
G1 X98.908 Y137.249 E.01828
G1 X97.16 Y135.501 E.08096
G1 X96.603 Y135.501 E.01823
G1 X98.349 Y137.247 E.08088
G1 X97.791 Y137.246 E.01828
G1 X96.079 Y135.534 E.07931
G1 X96.054 Y135.562 E.00122
G1 X96.02 Y135.726 E.00548
G1 X96.02 Y136.032 E.01004
G1 X97.233 Y137.245 E.05619
G1 X96.675 Y137.244 E.01828
G1 X96.02 Y136.589 E.03034
G1 X96.02 Y137.048 E.01503
G1 X96.037 Y137.16 E.00373
G1 X96.287 Y137.413 E.01162
M204 P1000
; stop printing object arm.stl id:11 copy 0
; printing object arm.stl id:7 copy 0
G1 E-.5 F2400
G1 X101.52 Y145.142 F10800
G1 E.5 F2400
M204 P800
;TYPE:Perimeter
;WIDTH:0.419999
G1 F1200
G1 X101.314 Y145.374 E.00973
G1 X101.102 Y145.792 E.01471
G1 X101.005 Y146.325 E.01699
G1 X101.056 Y146.786 E.01454
G1 X101.278 Y147.333 E.01849
G1 X101.52 Y147.609 E.01151
G1 X101.145 Y147.592 E.01177
G1 X96.175 Y147.582 E.15583
G1 X95.914 Y147.52 E.0084
G1 X95.743 Y147.33 E.00803
G1 X95.68 Y147.074 E.00826
G1 X95.68 Y145.752 E.04147
G1 X95.736 Y145.427 E.01032
G1 X95.891 Y145.249 E.0074
G1 X96.195 Y145.162 E.00991
G1 X100.974 Y145.158 E.14987
G1 X101.46 Y145.144 E.01523
M204 P1000
G1 E-.5 F2400
G1 X103.736 Y145.211 F10800
G1 E.5 F2400
M204 P800
;TYPE:External perimeter
;WIDTH:0.469726
G1 F1200
G1 X103.97 Y145.394 E.01054
;WIDTH:0.457838
G1 X104.191 Y145.824 E.01668
;WIDTH:0.430633
G1 X104.248 Y146.247 E.01375
;WIDTH:0.430443
G1 X104.193 Y146.914 E.02157
;WIDTH:0.465279
G1 X103.969 Y147.364 E.01765
G1 X103.767 Y147.531 E.00919
;WIDTH:0.461187
G1 X103.318 Y147.698 E.01666
;WIDTH:0.424559
G1 X102.673 Y147.726 E.0205
;WIDTH:0.43368
G1 X102.178 Y147.627 E.01641
G1 X101.881 Y147.447 E.01128
;WIDTH:0.419999
G1 X101.559 Y147.066 E.01566
G1 X101.399 Y146.604 E.01533
G1 X101.385 Y146.27 E.01048
G1 X101.448 Y145.941 E.01048
G1 X101.595 Y145.624 E.01096
G1 X101.945 Y145.257 E.01591
;WIDTH:0.427171
G1 X102.383 Y145.066 E.01526
G1 X102.886 Y145.017 E.01616
;WIDTH:0.4252
G1 X103.469 Y145.088 E.01865
;WIDTH:0.469726
G1 X103.682 Y145.186 E.00831
M204 P1000
G1 E-.5 F2400
G1 X95.725 Y147.847 F10800
G1 E.5 F2400
M204 P800
;WIDTH:0.419999
G1 F1200
G1 X95.466 Y147.617 E.01084
G1 X95.347 Y147.384 E.00821
